symbols/web/22mp/materialsymbolsoutlined/22mp_wght200grad200_40px.svg

<svg xmlns="http://www.w3.org/2000/svg" height="40" width="40"><path d="M11.125 18.708H17.5v-1.375h-5.042V14.75h3.75q.542 0 .917-.396t.375-.896v-2.583q0-.5-.396-.875t-.896-.375h-5.083v1.333h5.042v2.625h-3.75q-.542 0-.917.375t-.375.875Zm11.208 0h6.417v-1.375h-5.083V14.75h3.791q.5 0 .896-.396t.396-.896v-2.583q0-.5-.396-.875t-.896-.375h-5.125v1.333h5.084v2.625h-3.792q-.5 0-.896.375t-.396.875Zm-12 11.75h1.334V22.75h2.916v5.083h1.334V22.75h3.041v7.708h1.334v-7.916q0-.5-.354-.834-.355-.333-.813-.333h-7.667q-.458 0-.791.333-.334.334-.334.792Zm12.959 0h1.333v-2.666H28.5q.5 0 .833-.334.334-.333.334-.833V22.5q0-.458-.334-.792-.333-.333-.833-.333h-5.208Zm1.333-4V22.75h3.708v3.708ZM9.083 34.042q-1.291 0-2.208-.917-.917-.917-.917-2.208V9.083q0-1.291.917-2.208.917-.917 2.208-.917h21.834q1.291 0 2.208.917.917.917.917 2.208v21.834q0 1.291-.917 2.208-.917.917-2.208.917Zm0-2.125h21.834q.375 0 .687-.313.313-.312.313-.687V9.083q0-.375-.313-.687-.312-.313-.687-.313H9.083q-.375 0-.687.313-.313.312-.313.687v21.834q0 .375.313.687.312.313.687.313Zm-1-23.834v23.834V8.083Z"/></svg>

<svg xmlns="http://www.w3.org/2000/svg" height="40" width="40"><path d="M11.125 18.708H17.5V17.333H12.458V14.75H16.208Q16.75 14.75 17.125 14.354Q17.5 13.958 17.5 13.458V10.875Q17.5 10.375 17.104 10Q16.708 9.625 16.208 9.625H11.125V10.958H16.167V13.583H12.417Q11.875 13.583 11.5 13.958Q11.125 14.333 11.125 14.833ZM22.333 18.708H28.75V17.333H23.667V14.75H27.458Q27.958 14.75 28.354 14.354Q28.75 13.958 28.75 13.458V10.875Q28.75 10.375 28.354 10Q27.958 9.625 27.458 9.625H22.333V10.958H27.417V13.583H23.625Q23.125 13.583 22.729 13.958Q22.333 14.333 22.333 14.833ZM9.083 34.042Q7.792 34.042 6.875 33.125Q5.958 32.208 5.958 30.917V9.083Q5.958 7.792 6.875 6.875Q7.792 5.958 9.083 5.958H30.917Q32.208 5.958 33.125 6.875Q34.042 7.792 34.042 9.083V30.917Q34.042 32.208 33.125 33.125Q32.208 34.042 30.917 34.042ZM9.083 31.917H30.917Q31.292 31.917 31.604 31.604Q31.917 31.292 31.917 30.917V9.083Q31.917 8.708 31.604 8.396Q31.292 8.083 30.917 8.083H9.083Q8.708 8.083 8.396 8.396Q8.083 8.708 8.083 9.083V30.917Q8.083 31.292 8.396 31.604Q8.708 31.917 9.083 31.917ZM8.083 8.083Q8.083 8.083 8.083 8.375Q8.083 8.667 8.083 9.083V30.917Q8.083 31.333 8.083 31.625Q8.083 31.917 8.083 31.917Q8.083 31.917 8.083 31.625Q8.083 31.333 8.083 30.917V9.083Q8.083 8.667 8.083 8.375Q8.083 8.083 8.083 8.083ZM11.458 21.375Q11 21.375 10.667 21.708Q10.333 22.042 10.333 22.5V30.458H11.667V22.75H14.583V27.833H15.917V22.75H18.958V30.458H20.292V22.542Q20.292 22.042 19.938 21.708Q19.583 21.375 19.125 21.375ZM23.292 21.375V30.458H24.625V27.792H28.5Q29 27.792 29.333 27.458Q29.667 27.125 29.667 26.625V22.5Q29.667 22.042 29.333 21.708Q29 21.375 28.5 21.375ZM24.625 22.75H28.333V26.458H24.625Z"/></svg>
